img/icons/mono/about-social.svg

<svg width="33" height="32" viewBox="0 0 33 32" fill="none" xmlns="http://www.w3.org/2000/svg">
<path d="M26.5652 19.1865L25.6052 26.8265C25.5659 27.1517 25.4083 27.4511 25.1623 27.6675C24.9164 27.8839 24.5994 28.0022 24.2719 27.9999H7.96521C7.63764 28.0022 7.32066 27.8839 7.07474 27.6675C6.82882 27.4511 6.67118 27.1517 6.63188 26.8265L5.67188 19.1865" stroke="#231F20" stroke-width="2" stroke-linecap="round" stroke-linejoin="round"/>
<path d="M27.2182 18.9733L21.1782 20.9867C17.8978 22.0786 14.3519 22.0786 11.0715 20.9867L5.03153 18.9733C4.75555 18.8806 4.51753 18.7 4.35381 18.4592C4.1901 18.2185 4.10968 17.9308 4.12486 17.64V9.33333H28.1249V17.7067C28.1256 17.9862 28.0384 18.2589 27.8757 18.4862C27.713 18.7135 27.483 18.8839 27.2182 18.9733ZM14.7915 16H17.4582H14.7915ZM22.7915 8C22.7915 6.93913 22.3701 5.92172 21.62 5.17157C20.8698 4.42143 19.8524 4 18.7915 4H13.4582C12.3973 4 11.3799 4.42143 10.6298 5.17157C9.87962 5.92172 9.45819 6.93913 9.45819 8V9.33333H22.7915V8Z" stroke="#231F20" stroke-width="2" stroke-linecap="round" stroke-linejoin="round"/>
</svg>

<svg width="33" height="32" fill="none" xmlns="http://www.w3.org/2000/svg"><path d="M26.565 19.186l-.96 7.64A1.333 1.333 0 0124.272 28H7.965a1.334 1.334 0 01-1.333-1.174l-.96-7.64" stroke="#231F20" stroke-width="2" stroke-linecap="round" stroke-linejoin="round"/><path d="M27.218 18.973l-6.04 2.014a16 16 0 01-10.107 0l-6.04-2.014a1.333 1.333 0 01-.906-1.333V9.333h24v8.374a1.334 1.334 0 01-.907 1.266zM14.791 16h2.667-2.666zm8-8a4 4 0 00-4-4h-5.333a4 4 0 00-4 4v1.333h13.333V8z" stroke="#231F20" stroke-width="2" stroke-linecap="round" stroke-linejoin="round"/></svg>
